ultrasound/ui/components/burn.svg

<svg width="24" height="24" viewBox="0 0 24 24" fill="none" xmlns="http://www.w3.org/2000/svg">
<path fill-rule="evenodd" clip-rule="evenodd" d="M12.5158 10.4553L11.9994 9.96632L11.4837 10.456C9.78744 12.0664 8.75873 14.2558 8.60179 16.5896L8.6001 16.6147V16.6399C8.6001 17.6778 8.94968 18.5582 9.59159 19.1781C10.2285 19.7932 11.0887 20.0899 12.0001 20.0899C12.9028 20.0899 13.7641 19.8086 14.4062 19.2052C15.0559 18.5946 15.4101 17.7207 15.4101 16.6799V16.6561L15.4086 16.6324C15.2595 14.2818 14.2259 12.0749 12.5158 10.4553ZM10.1002 16.6643C10.2201 14.9649 10.8911 13.358 12.0008 12.0824C13.1213 13.3671 13.7959 14.9889 13.91 16.7029C13.905 17.3792 13.6809 17.8283 13.379 18.1121C13.0661 18.4062 12.5974 18.5899 12.0001 18.5899C11.4115 18.5899 10.9467 18.4015 10.6336 18.0991C10.3292 17.8051 10.1054 17.343 10.1002 16.6643Z" fill="#FC8738"/>
<path fill-rule="evenodd" clip-rule="evenodd" d="M12 2.14795L8.88341 6.8228L6.77725 4.71662L6.32197 5.67942C5.99583 6.36913 4.44714 10.2315 4.3963 13.9735C4.37083 15.8483 4.71939 17.8043 5.90397 19.3027C7.11427 20.8336 9.08579 21.7499 12 21.7499C14.9151 21.7499 16.8867 20.8299 18.0967 19.2948C19.2806 17.7927 19.6291 15.8325 19.6037 13.9548C19.5529 10.2082 18.0056 6.34508 17.673 5.66897L17.2105 4.72887L15.1165 6.82281L12 2.14795ZM12 4.85211L14.8834 9.17726L16.733 7.32764C17.2614 8.76185 18.0692 11.4217 18.1038 13.9751C18.1271 15.6924 17.7987 17.2497 16.9186 18.3663C16.0645 19.4499 14.5848 20.2499 12 20.2499C9.41417 20.2499 7.93443 19.4524 7.08068 18.3724C6.20119 17.2599 5.87288 15.7078 5.89616 13.9939C5.93083 11.4422 6.74043 8.77897 7.27098 7.33169L9.11654 9.17726L12 4.85211Z" fill="#FC8738"/>
</svg>

<svg width="24" height="24" fill="none" viewBox="0 0 24 24" xmlns="http://www.w3.org/2000/svg">
  <path fill="#FC8738" fill-rule="evenodd" d="m12.516 10.455-.517-.489-.515.49a9.32 9.32 0 0 0-2.882 6.134l-.002.025v.025c0 1.038.35 1.918.992 2.538.636.615 1.497.912 2.408.912.903 0 1.764-.281 2.406-.885.65-.61 1.004-1.484 1.004-2.525v-.024l-.001-.024a9.32 9.32 0 0 0-2.893-6.177m-2.416 6.21a7.82 7.82 0 0 1 1.9-4.583 7.82 7.82 0 0 1 1.91 4.62c-.005.677-.23 1.126-.531 1.41-.313.294-.782.478-1.379.478-.588 0-1.053-.189-1.366-.49-.305-.295-.529-.757-.534-1.436" clip-rule="evenodd"/>
  <path fill="#FC8738" fill-rule="evenodd" d="M12 2.148 8.883 6.823 6.777 4.717l-.455.962c-.326.69-1.875 4.553-1.926 8.295-.025 1.874.323 3.83 1.508 5.329 1.21 1.53 3.182 2.447 6.096 2.447s4.887-.92 6.097-2.455c1.184-1.502 1.532-3.463 1.507-5.34-.051-3.747-1.598-7.61-1.931-8.286l-.462-.94-2.094 2.094zm0 2.704 2.883 4.325 1.85-1.85c.528 1.435 1.336 4.095 1.37 6.648.024 1.717-.304 3.275-1.184 4.391-.855 1.084-2.334 1.884-4.919 1.884-2.586 0-4.066-.798-4.92-1.878-.879-1.112-1.207-2.664-1.184-4.378.035-2.552.844-5.215 1.375-6.662l1.846 1.845z" clip-rule="evenodd"/>
</svg>
